X:1
T:Jubilate Domino
T:Dietrich Buxtehude
T:for Alto, Viola da Gamba and Basso Continuo, BuxWV64
T:(1637-1707)
T:Based on Manuscript 51:12 from the Uppsala University Library, Sweden
T:allegro
T:Jubilate Domino
T:©
T:©
T:©
T:©
T:©
T:©
T:©
T:©
T:©
T:©
T:©
T:©
T:©
T:©
T:©
T:©
T:©
T:©
T:©
T:©
T:©
T:©
T:©
T:©
T:©
T:©
T:©
C:Dietrich Buxtehude
Z:©
%%score { 1 | 2 | 3 }
L:1/8
Q:1/4=65
M:4/4
K:D
V:1 alto nm="Viola da Gamba"
V:2 alto 
V:3 bass 
V:1
"^Viola da Gamba""^Sonata" z A/B/"^Instrument change" A>G FF/F/ FG/A/ | %1
"^Instrument change" D"^Instrument change"E/F/ G/A/F/G/ EA/G/ F/A/B/c/ | %2
"^Instrument change" d/F/"^Instrument change"G/A/ B/D/E/F/ G/A/F/G/ E/F/D/E/ | %3
"^Continuo" C/D/B,/C/ A,/B,/G,/A,/"^Instrument change" F,/E,/F,/G,/ F,>F, | %4
"^Instrument change" E,"^Instrument change"A,A,>^G, A,>!courtesy!=G,F,A, | %5
"^Instrument change" D"^Instrument change"B,E>D C>B,A,>G, | %6
"^Instrument change" F,/F/"^Instrument change"E/F/ D3/2C/4D/4 C2 z2 | %7
"^Instrument change" z"^Instrument change" DD>C D>C B,D | %8
"^Instrument change" G"^Instrument change"EA>G F>E D>C | %9
"^Instrument change" B,2 CD EFG>A"^Instrument change" | %10
"^Instrument change" FD/"^Instrument change"E/ D>D CC/C/ CD/E/ | %11
"^Instrument change" A,B,/"^Instrument change"C/ D/E/C/D/ B,E/D/ C/E/F/G/ | %12
"^Instrument change" A/C/D/"^Instrument change"E/ F/A,/B,/C/ D/F/G/A/ B/D/E/F/ | %13
"^Instrument change" G>F E/E/F/G/ A>G F/F/G/A/"^Instrument change" | %14
"^Instrument change" B/=c/"^Instrument change"A/B/ G/A/F/G/ EA/B/ A>G | %15
"^Instrument change" F"^Instrument change"F/F/ FG/A/ DGG>F | %16
"^Instrument change" GD/E/"^Instrument change" D>=C B,E E>^D | %17
"^Instrument change" EE/F/"^Instrument change" E>D C2 z2 | %18
"^Instrument change" z"^Instrument change" F/G/ F>E DE/D/ C>B, | %19
"^Instrument change" B,B/c/"^Instrument change" B>A ^G4 | %20
"^Instrument change" z A/B/"^Instrument change" A>G F[K:bass]D,/E,/ D,>^C, | %21
"^Instrument change" B,,G,,/A,,/"^Instrument change" G,,>^F,, E,,[K:alto] E/^F/ E>D | %22
"^Instrument change" ^C[K:bass]A,,/B,,/"^Instrument change" A,,>G,, ^F,,[K:alto] F/G/ F>E | %23
"^Instrument change" D[K:bass] B,,/=C,/"^Instrument change" B,,>A,, ^G,,[K:alto] E/D/ D>C | %24
"^Instrument change" D[K:bass]C/B,/"^Instrument change" A,/B,/A,/G,/ F,/G,/F,/E,/ D,/E,/D,/C,/ | %25
"^Instrument change" B,,/=C,/B,,/A,,/ G,,/A,,/"^Instrument change"G,,/F,,/ E,,D,, A,,A,/A,/ | %26
"^Instrument change" F,/F,/"^Instrument change"D,/D,/ A,,A, F,D, A,,2 | %27
"^Instrument change" !fermata!D,,8 || z8"^Instrument change" | %29
 z8"^Instrument change""^Instrument change""^Instrument change" | %30
 z8"^Instrument change""^Instrument change" | %31
 z8"^Instrument change""^Instrument change""^Instrument change" | %32
 z8"^Instrument change""^Instrument change" | %33
 z8"^Instrument change""^Instrument change""^Instrument change" | %34
 z8"^Instrument change""^Instrument change" | z8"^Instrument change""^Instrument change" | %36
 z8"^Instrument change""^Instrument change" | z8"^Instrument change""^Instrument change" | %38
 z8"^Instrument change""^Instrument change" | z8"^Instrument change""^Instrument change" | %40
 z8"^Instrument change""^Instrument change""^Instrument change" | %41
 z8"^Instrument change""^Instrument change""^Instrument change" | %42
"^Instrument change" z4 z D/D/ DE"^Instrument change""^Instrument change" | %43
"^Instrument change" F>G FE/D/ A>B A/B/A/B/"^Instrument change" | %44
"^Instrument change" AD z A/B/ BA/G/ F/G/A/B/"^Instrument change" | %45
"^Instrument change" A"^Instrument change"B A/B/A/B/ ADEF | %46
"^Instrument change" G/A/"^Instrument change"F/G/ E>D D2 z C/D/ | %47
"^(violdag:solo)" E"^Instrument change"FD>C C2 z C/D/ | %48
"^Instrument change" E/F/"^Instrument change"E/F/ E/C/D/E/ A,A, z E/F/ | %49
"^Instrument change" A/B/"^Instrument change"A/B/ A/F/G/A/ DE/F/ G/A/F/G/ | %50
"^Instrument change" E"^Instrument change"F/G/ A/B/G/A/ FG/A/ B/=c/A/B/ | %51
"^Instrument change" G/A/"^Instrument change"F/G/ E/F/D/E/ CA, z A/A/ | %52
"^Instrument change" A2 A2 DG E>F"^Instrument change" | %53
"^Instrument change" F2 A4- AA"^Instrument change" | %54
"^Instrument change" D"^Instrument change"G E>D D[K:bass]^F,,G,,A,, | %55
"^Instrument change" D,,4 z4"^Instrument change""^Instrument change" | %56
 z8"^Instrument change""^Instrument change" | z8"^Instrument change""^Instrument change" | %58
 z8"^Instrument change""^Instrument change" | %59
"^Instrument change" z"^Instrument change" D/E/"^Instrument change" F"^Instrument change"E/D/ E/D/E/F/ ED/C/ | %60
"^Instrument change" D"^Instrument change"B,/C/"^Instrument change" DC/B,/ C/B,/C/D/ CB,/^A,/ | %61
"^Instrument change" B,/"^Instrument change"D/B,/C/ DC/B,/"^Instrument change" C2- C/F/E/D/ | %62
"^Instrument change" D3"^Instrument change" C D2 z2"^Instrument change" | %63
 z8"^Instrument change""^Instrument change" | z8"^Instrument change""^Instrument change" | %65
"^Instrument change" z"^Instrument change" A/B/"^Instrument change" c"^Instrument change"B/A/ B/A/B/c/ BA/^G/ | %66
"^Instrument change" A"^Instrument change"F"^Instrument change" z2 z4 | %67
"^Instrument change" z"^Instrument change" z/ C/ D"^Instrument change"E FD/C/ B,>B, | %68
"^Instrument change" A,"^Instrument change"AB"^Instrument change"c cB/A/ A>^G | %69
"^Instrument change" A"^Instrument change"C/D/"^Instrument change" E"^Instrument change"D/C/ D/C/D/E/ DC/B,/ | %70
"^Instrument change" C"^Instrument change"A, z2 z4"^Instrument change" | %71
"^Instrument change" z/ E/"^Instrument change"F/G/"^Instrument change" AG/F/ G/F/G/A/ GF/E/ | %72
"^Instrument change" F"^Instrument change"D/E/"^Instrument change" FE/D/ E/D/E/F/ ED/C/ | %73
"^Instrument change" D"^Instrument change"A,/D/"^Instrument change" EF FE/D/ D>C | %74
"^Instrument change" D"^Instrument change" z/ F/ G"^Instrument change"A BG/F/ E>E | %75
"^Instrument change" D3/2C/4B,/4"^Instrument change" A,/A,/"^Instrument change"D/D/ B,/B,/E/E/ C/C/A/A/"^Instrument change" | %76
"^Instrument change" F/F/"^Instrument change"G/G/ A/A/=c/c/ B/B/d/d/ !courtesy!^c/B/A/G/ | %77
"^Instrument change" F/F/"^Instrument change"G/G/ A/A,/D/=C/ B,/D/E/D/ !courtesy!^C/E/A/G/ | %78
"^Instrument change" F/d/"^Instrument change"c/B/ A/G/F/E/ D/A/G/F/ E/D/C/B,/ | %79
"^Instrument change" A,/G,/"^Instrument change"F,/E,/ D,/=C,/B,,/A,,/ G,,G,/E,/ A,>A,, | %80
"^Instrument change" D,"^Instrument change"C,/A,,/ B,,A,,/F,,/ G,,/B,,/G,,/E,,/ A,,3/2G,,/4A,,/4 | %81
"^Instrument change" D,,4 z4"^Instrument change" | z8"^Instrument change" | z8 || %84
"^Instrument change" z8 | %85
"^Instrument change" [G,,D,G,B,]3"^Instrument change" [G,,D,G,B,] [G,,D,G,B,]4 | %86
"^Instrument change" [G,,D,G,B,D]3 [G,,D,G,B,D] [G,,D,G,B,D]4 | %87
[M:6/8] z6"^Instrument change""^Instrument change" | z6"^Instrument change""^Instrument change" | %89
"^Instrument change" z/ F,,/G,,/A,,/B,,/C,/"^Instrument change" D,/E,/F,/G,/A,/B,/ | %90
"^Instrument change" G,/F,/G,/A,/B,/C/"^Instrument change" [F,A,D]>[F,A,D][F,A,D] | %91
"^Instrument change" D>"^Instrument change"ED"^Instrument change" D>DD | %92
"^Instrument change" DD>C"^Instrument change" D2 D"^Instrument change" | %93
 z6"^Instrument change""^Instrument change" | z6"^Instrument change""^Instrument change" | %95
"^Instrument change" A,>A,"^Instrument change"A,"^Instrument change" B,>CD | %96
"^Instrument change" D"^Instrument change"D>C D/C/D/E/D/E/ | %97
"^Instrument change" C2 C"^Instrument change" z3"^Instrument change" | %98
"^Instrument change" D>ED"^Instrument change" C>B,A, | z6"^Instrument change""^Instrument change" | %100
 z6"^Instrument change""^Instrument change" | %101
"^Instrument change" z/ C,/D,/E,/F,/G,/"^Instrument change" A,/B,/C/D/E/F/ | %102
"^Instrument change" D/C/D/E/F/^G/"^Instrument change" [CEA]>[CEA][CEA] | %103
"^Instrument change" A>"^Instrument change"BA"^Instrument change" A>AA | %104
"^Instrument change" AA>^G"^Instrument change" A2 A"^Instrument change" | %105
"^Instrument change" F>"^Instrument change"GF/G/"^Instrument change" E>EA, | %106
"^Instrument change" D>ED"^Instrument change" C>CC"^Instrument change" | %107
 z6"^Instrument change""^Instrument change" | %108
"^Instrument change" z2 z"^Instrument change" C>DE"^Instrument change" | %109
"^Instrument change" F>^G"^Instrument change"A AA>G | %110
"^Instrument change" A3 z3"^Instrument change""^Instrument change" | %111
 z6"^Instrument change""^Instrument change" |"^Instrument change" B>AB"^Instrument change" A>GF | %113
 z6"^Instrument change""^Instrument change" | z6"^Instrument change""^Instrument change" | %115
"^Instrument change" z/ F,/G,/A,/B,/C/"^Instrument change" D/E/F/G/A/B/ | %116
"^Instrument change" G/F/G/A/B/c/"^Instrument change" d>dd | %117
"^Instrument change" D>"^Instrument change"EE"^Instrument change" E>DD | %118
"^Instrument change" DD>C"^Instrument change" D2 D"^Instrument change" | %119
"^Instrument change" B,>"^Instrument change"=CB,/C/"^Instrument change" A,>A,D, | %120
"^Instrument change" G,>A,G,"^Instrument change" F,>F,D,"^Instrument change" | %121
"^Instrument change" G,/G,,/B,,/=C,/D,/E,/"^Instrument change" D,/E,/F,/G,/A,/B,/ | %122
"^Instrument change" G,/A,<B,C/"^Instrument change" D>ED"^Instrument change" | %123
"^Instrument change" D>"^Instrument change"ED"^Instrument change" D>ED | %124
"^Instrument change" D2 C"^Instrument change" D2[K:bass] D,,"^Instrument change" | %125
"^Instrument change" G,,>A,,G,,/A,,/"^Instrument change" F,,>E,,D,,"^Instrument change" | %126
"^Instrument change" E,,"^Instrument change"A,,>A,, D,,2 D,,"^Instrument change" | %127
 z6"^Instrument change" | z6"^Instrument change" | z6"^Instrument change" || %130
[M:4/4][K:alto]"^Instrument change" z/ D/F/B/ F/D/B,/C/ D-D/4E/4F/4G/4 F-F/4E/4D/4C/4 | %131
 D-D/4C/4B,/4^A,/4[K:bass] B,!courtesy!=A,/G,/ F,-F,/4E,/4D,/4C,/4 D,-D,/4C,/4B,,/4^A,,/4 | %132
"^Instrument change" B,,[K:treble]B,/C/ D/E/F/G/"^Instrument change" A/B/c/d/ e/f/g/a/ | %133
"^Instrument change" f-f/4e/4d/4c/4 d[K:alto]A,/A,/"^Instrument change" D-D/4E/4F/4G/4 F-F/4E/4D/4C/4 | %134
"^Instrument change" B,-B,/4C/4D/4E/4 D-D/4E/4F/4E/4[K:treble] D(B/4c/4d/) c>B | %135
"^Instrument change" ^A2[K:alto]"^Instrument change" =A>A FE/D/ C>C, | %136
"^Instrument change" F,"^Instrument change"F,[K:bass]"^Instrument change" z/ F,/E,/D,/ C,B,,/^A,,/ B,,C, | %137
"^Instrument change" F,,/E,,/F,,/G,,/"^Instrument change" F,,F, G,F,/E,/ F,F,, | %138
"^Instrument change" B,,/^A,,/B,,/C,/"^Instrument change" B,,2 z4 | %139
"^Instrument change" z2"^Instrument change" z/ B,/A,/G,/ F,/A,/D,/F,/ A,,/D,/F,,/A,,/"^Instrument change" | %140
"^Instrument change" D,,/E,,/D,,/E,,/"^Instrument change" D,,2 z4"^Instrument change" | %141
 z8"^Instrument change""^Instrument change" | z8"^Instrument change""^Instrument change" | %143
 z8"^Instrument change""^Instrument change" |"^(a 2)" z8"^Instrument change""^Instrument change" | %145
"^Instrument change" z4 z2 z C/C/"^Instrument change""^Instrument change" | %146
"^Instrument change" F"^Instrument change"C/^D/ EB,/C/"^Instrument change" !courtesy!=D/E/D/E/"^Instrument change" CC | %147
"^Instrument change" z4 z2 z A/A/"^Instrument change""^Instrument change" | %148
"^Instrument change" B"^Instrument change"F/^G/ AE/F/"^Instrument change" !courtesy!=G/A/G/A/"^Instrument change" F/F/F/F/ | %149
"^Instrument change" A"^Instrument change"E/F/"^Instrument change" GD/E/ F/G/F/G/ EF/G/ | %150
"^Instrument change" A"^Instrument change"B/c/"^Instrument change" d/e/c/d/ BBBB | %151
"^Instrument change" B"^Instrument change"B"^Instrument change"BB B/c/B/c/ B>A | %152
"^Instrument change" A2[K:bass]"^Instrument change" z/ A,/G,/F,/ E,D,/C,/"^Instrument change" D,E, | %153
"^Instrument change" A,,/^G,,/A,,/B,,/"^Instrument change" A,,2"^Instrument change" z4 | %154
"^Instrument change" z2"^Instrument change" D,>D, F,F,/F,/ A,>A,"^Instrument change" | %155
"^Instrument change" F,"^Instrument change"D,"^Instrument change" z2 z4"^Instrument change" | %156
"^Instrument change" z2"^Instrument change" z"^Instrument change" F/F/ GD/E/ FC/D/ | %157
"^Instrument change" E/"^Instrument change"F/E/F/"^Instrument change" DE/F/ G/A/G/A/ G/A/G/A/ | %158
"^Instrument change" F"^Instrument change"FF"^Instrument change"F EEED | %159
"^Instrument change" D3 C DA/A/ BF/^G/"^Instrument change""^Instrument change" | %160
"^Instrument change" A"^Instrument change"E/"^Instrument change"F/ !courtesy!=G/A/G/A/ F/G/F/G/ E/F/E/F/ | %161
"^Instrument change" G/"^Instrument change"A/"^Instrument change"G/A/ FG/A/ B/A/B/=c/ B/c/B/c/ | %162
"^Instrument change" A"^Instrument change"AA"^Instrument change"B GGGF | %163
"^Instrument change" F/A/G/F/"^Instrument change" E>D"^Instrument change" D2 DF"^Instrument change" | %164
"^Instrument change" FE"^Instrument change" E2 ED D2"^Instrument change" | %165
"^Instrument change" D6 C2"^Instrument change""^Instrument change" | %166
"^Instrument change" !fermata!D16"^Instrument change" D16 |] %167
V:2
 z8 | z8 | z8 | z8 | z8 | z8 | z8 | z8 | z8 | z8 | z8 | z8 | z8 | z8 | z8 | z8 | z8 | z8 | z8 | %19
w: |||||||||||||||||||
w: |||||||||||||||||||
w: |||||||||||||||||||
 z8 | z8 | z8 | z8 | z8 | z8 | z8 | z8 | z8 || z8 | z2 z D/D/ DA, (D/E/)D/E/ | FD z2 z D/D/ DE | %31
w: ||||||||||Ju- bi- la- te, ju- * * bi|la- te ju- bi- la- te|
w: ||||||||||||
w: ||||||||||||
 F>G FE/D/ A>GA/B/A/B/ | AD z A/B/ BA/G/ F/G/A/B/ | A2- A/B/A/B/ ADEF | %34
w: Do- mi- no, ju- bi- la * * * * *|* te ju- bi- la * * * * * *|* * * * * * te om- nis,|
w: |||
w: |||
 (G/A/) (F/G/) (E>D) D2 z (C/D/) | EF (D>C) C2 z C/D/ | E/F/E/F/ E/C/D/E/ A,A, z F/G/ | %37
w: om- * nis * ter- ra, * om- *|* nis ter- ra, * ju- bi|la * * * * * * * * te ju- bi|
w: |||
w: |||
 A/B/A/B/ A/F/G/A/ DE/F/ G/A/F/G/ | EF/G/ A/B/G/A/ FG/A/ B/=c/A/B/ | G/A/F/G/ E/F/D/E/ CA, z A/A/ | %40
w: la- * * * * * * * * * * * * * *||* * * * * * * * * te ju- bi|
w: |||
w: |||
 A2 A2 DG (E>F) | F2 A4- AA | DG (E>D) D2 z2 | z8 | z8 | z8 | z8 | z8 | z8 | z8 | z8 | z8 | z8 | %53
w: la- te- om- nis ter *|ra, om * nis|om- nis ter- * ra.|||||||||||
w: |||||||||||||
w: |||||||||||||
 z8 | z8 | z (D/E/) FE/D/ E/D/E/F/ ED/C/ | DB,/C/ DC/B,/ CC z E | AA z F BB/B/ (c/d/) (c/B/) | %58
w: ||can- * ta- * * * * * * * * *|* * * * * * * te, can-|ta- te can- ta- te et ex- * ul- *|
w: |||||
w: |||||
 ^AF/A/ Bc dc/B/ B>A | B2 z2 z4 | z (D/E/) FE/D/ E/D/E/F/ ED/C/ | D/F/G/A/ BA/G/ A/G/A/B/ AG/F/ | %62
w: ta- te, et ex- ul- ta- te et psal- li-|te|can- * ta- * * * * * * * * *||
w: ||||
w: ||||
 GE/F/ GF/E/ FD z F | BB z B, FF/F/ (^G/A/) (G/F/) | ^EC/E/ F^G AB/A/ G>F | F2 z2 z4 | %66
w: * * * * * * * te, can-|ta- te, can- ta- te et ex- * ul- *|ta- te, et ex- ul- ta- te et psal- li-|te|
w: ||||
w: ||||
 z (A/B/) cB/A/ B/A/B/c/ BA/^G/ | AF/A/ Bc cB/A/ A>^G | A z/ C/ DE FD/C/ B,>B, | A,2 z2 z4 | %70
w: can- * ta- * * * * * * * * *|* te et ex- ul- ta- te et psal- li-|te, et ex- ul- ta- te et psal- li-|te|
w: ||||
w: ||||
 z C/D/ ED/C/ D/C/D/E/ DC/B,/ | CA, z2 z4 | z (F/G/) AG/F/ G/F/G/A/ GF/E/ | FD/F/ GA BG/F/ E>D | %74
w: can- * ta- * * * * * * * * *|* te|can- * ta- * * * * * * * * *|* te et ex- ul- ta- te et psal- li|
w: ||||
w: ||||
 DDEF FE/D/ D>C | D2 z2 z4 | z8 | z8 | z8 | z8 | z8 | z8 | z8 | z8 || D3 D D4 | G3 G G4 | z8 | %87
w: te, et ex- ul- ta- te- et psal- li-|te|||||||||Psal- li- te,|psal- li- te!||
w: |||||||||||||
w: |||||||||||||
[M:6/8] B>=cB/c/ A>AD | G>AG F>FF | z6 | z6 | B>=cB/c/ A>AD | G>AG F>FF | D>DD E>FG | %94
w: Psal- * * * * li- te,|psal- li- te Do- mi- no|||psal- * * * * li- te|psal- li- te Do- mi- no|ci- tha- ra, ci- tha- ra|
w: |||||||
w: |||||||
 (A/G<)GF/ G/F/G/A/G/A/ | F2 F z2 z | z6 | A>GA F>ED | z6 | F>GF/G/ E>EA, | D>ED C>CC | z6 | z6 | %103
w: et- * vo- ce psal- * * * * *|* mi,||psal- li- te. psal- li- te||psal- * * * * li- te,|psal- li- te Do- mi- no|||
w: |||||||||
w: |||||||||
 F>GF/G/ E>EA, | D>ED C>CC | C>B,B, B,>A,A, | A,A,>^G, A,2 A, | C>DE F>^GA | AA>^G A3 | z6 | %110
w: psal- * * * * li- te,|psal- li- te Do- mi- no|ci tha- ra ci- tha- ra|et vo- ce psal- mi,|psal- li- te Do- mi- no|in ci- tha- ra||
w: |||||||
w: |||||||
 C>DE F>ED | F>EF D>CB, | z6 | B>=cB/c/ A>AD | G>AG F>FF | z6 | z6 | B>=cB/c/ A>AD | G>AG F>FF | %119
w: psal- li- te, psal- li- te,|psal- li- te, psal- li- te||psal- * * * * li- te,|psal- li- te Do- mi- no,|||psal- * * * * li- te,|psal- li- te Do- mi- no,|
w: |||||||||
w: |||||||* 6 * * * * *||
 F>EE E>DD | DD>C D2 D | z6 | G>AG F>GF | B>=cB A>GF | GG>F F/E/F/G/F/G/ | E/D/E/F/E/F/ DEF | %126
w: ci- tha- ra, ci- tha- ra|in vo- ce psal- mi,||psal- li- te Do- mi- no|ci- tha- ra ci- tha- ra|in vo- ce, psal- * * * * *|* * * * * * * * mi|
w: |||||||
w: |||||||
 (G/F<)EG/ F3/2 (E/D) | z6 | z6 | z6 ||[M:4/4] z8 | z8 | z8 | z8 | z8 | z2 z F A/A/A/A/ c>c | %136
w: et- * vo- ce psal- * mi|||||||||In buc- ci- nis et vo- ce|
w: ||||||||||
w: ||||||||||
 AF z6 | z8 | z2 z B, D/D/D/D/ F>F | DB, z2 z4 | z2 z D F/F/F/F/ A>A | FD z A/A/ BF/^G/ AE/F/ | %142
w: tu- bae||in buc- ci- nis et vo- ce|tu- bae|in buc- ci- nis et vo- ce|tu- bae, ju- bi- la- * * * * *|
w: ||||||
w: ||||||
 G/A/G/A/ FC/D/ E/F/E/D/ C/D/C/B,/ | ^A,A, z C/D/ E/F/E/F/ DC/D/ | B,CDE FDAA | BAGF F>E F2 | %146
w: |* te ju- bi- la- * * * * * *|* * * * * te in con-|spec- tu re- gis Do- mi- ni,|
w: ||||
w: ||||
 z4 z2 z A/A/ | BF/^G/ AE/F/ !courtesy!=G/A/G/A/ FF | z4 z2 z D/D/ | FC/D/ EB,/C/ D/E/D/E/ CD/E/ | %150
w: ju- bi-|la- * * * * * * * * * * te,|ju- bi|la- * * * * * * * * * * * *|
w: ||||
w: ||||
 F^G/A/ B/c/A/B/ GGGG | ^GGAA A3 G | A2 z2 z4 | z2 z A, C/C/C/C/ E>E | CA, z2 z4 | %155
w: * * * * * * * * te in con-|spec- tu re- gis Do- mi-|ni,|in buc- ci- nis et vo- ce|tu- bae|
w: |||||
w: |||||
 z2 z D F/F/F/F/ A>A | F2 DA/A/ BF/G/ AE/F/ | G/A/G/A/ FG/A/ B/=c/B/c/ B/c/B/c/ | AAAB GGGF | %159
w: in buc- ci- nis et vo- ce|tu- bae, ju- bi- la- * * * * *||* te in con- spec- tu re- gis|
w: ||||
w: ||||
 F/A/G/F/ E>D D2 z D/D/ | FC/D/ EB,/C/ D/E/D/E/ C/D/C/D/ | E/F/E/F/ DE/F/ G/F/G/A/ G/A/G/A/ | %162
w: Do- * * * * mi- ni, ju- bi-|la- * * * * * * * * * * * * *||
w: |||
w: |||
 FFFF EEED | D3 C D2 FB | G2 G2 (G>F) F2 | (F4 E3) D | D16 !fermata!D16 |] %167
w: * te in con- spec- tu re- gis|Do- mi- ni, in con-|spec- tu re- * gis|Do- * mi-|ni. *|
w: |||||
w: |||||
V:3
 D,2 C,2 D,3 E,/F,/ | G,F,E,D, A,A,,D,C, | B,,A,,G,,F,, E,,4 | A,,4 z D,/E,/ D,>D, | %4
w: * 6 * * *||* * * * !||
w: ||||
w: ||||
 C,C,/C,/ C,D,/E,/ A,,B,,/C,/ D,/E,/C,/D,/ | B,,E,/D,/ C,/E,/ F,/^G,/ A,/C,/D,/E,/ F,/A,,/B,,/C,/ | %6
w: 6 * * * * # * * * * * 6 *||
w: ||
w: ||
 D,C, B,,2 A,,A,/B,/ A,>G, | F,F,/F,/ F,G,/A,/ D,E,/F,/ G,/A,/F,/G,/ | %8
w: * 6 7 * * * * *|6 * * * * * * * * * * 6 *|
w: ||
w: ||
 E,A,/G,/ F,/A,/B,/C/ D/F,/G,/A,/ B,/D,/E,/F,/ | G,/A,/F,/G,/ E,/F,/D,/E,/ C,D, E,2 | %10
w: |* * * * 6 * 8 * 6 * 7|
w: ||
w: ||
 D,>C, B,,2 A,,3 B,,/C,/ | D,>C, B,,D, G,E, A,>G, | F,>E, D,>C, B,,>A,, G,,>F,, | %13
w: * * 7 * 6 *|||
w: |||
w: |||
 E,,/E,/F,/G,/ A,>G, F,/F,/G,/A,/ B,>A, | G,F,E,D, C,3 C, | D,D/E/ D>=C B,B, B,C/D/ | %16
w: |* * * * 6 5|* * * * * 6 * * * *|
w: |||
w: |||
 G,2 z2 z G, G,A,/B,/ | E,2 z2 z A,/B,/ A,>G, | F, D,/E,/ D,>C, B,,E,, F,,2 | %19
w: * 6 * * #||* * * * * * 6t *|
w: ||* * * * * * * 4|
w: |||
 B,,2 z2 z E,/F,/ E,>=D, | C,2 z C, D,2 z F,, | G,,2 z G,, E,,2 z E,, | A,,2 z A,, F,,2 z F,, | %23
w: # # * # *|6 * * 6|||
w: ||||
w: ||||
 B,,2 z B,, ^G,,2 A,,2 | D,,2 z2 z2 z F,, | G,,3 F,, E,,D,,A,,A, | F,D,A,,A, F,D, A,,2 | %27
w: * * 6t 4|* 6|* * 6 * 4 3|* * 4 3 * * 4|
w: |||6 * * * * * *|
w: ||||
 !fermata!D,,8 ||"^(Jubilate)" z D,/D,/ D,E, F,D,G,G,, | D,/C,/D,/E,/ D,D,, z4 | %30
w: |||
w: |||
w: |||
 z D,/D,/ D,E, F,D,G,G,, | D,,D,A,,B,, F,,3 G,, | D,>E,F,D, G,A,B,G, | DCDD, F,2 G,A, | %34
w: |* * 6 * 6 *|* * * * * * 5 *|* * * * 6 6 6|
w: ||||
w: ||||
 B,G,A,A,, D,/E,/D,/C,/ B,,2 | C,D, B,,2 A,,A,/B,/ A,/B,/A,/B,/ | A,A,, z2 z A,F,D, | %37
w: 6 7t 5r * * * * * 5|||
w: * * * 3 * * * * *|6 * 7 * * * * * * *|* * * 6 *|
w: |||
 D,D,, z2 z G,E, z | z A,F, z z B,G,F, | E,F,G,E, A,>G, F,E,/D,/ | C,A,,D,F,, B,,E,, A,,2 | %41
w: ||||
w: ||* * 6 7 * * * * *|* * * * 7 7 7r|
w: ||||
 D,,D,C,A,, D,DCA, | B,E, A,2 D,2 z2 | z D,A,,B,, F,,3 G,, | D,>E,F,D, G,A,B,G, | DCDD, F,2 G,A, | %46
w: |||||
w: * * 6 * * * 6 *|7 7 4 *|||* * * * 6 6 6|
w: |||||
 B,G,A,A,, D,/E,/D,/C,/ B,,2 | C,D, B,,2 A,,A,/B,/ A,/B,/A,/B,/ | A,A,, z2 z D,/E,/ D,/E,/D,/E,/ | %49
w: |||
w: 6 7t 4 3 * * * * 5|6 * 7 * * * * * * *||
w: |||
 D,D,, z2 z G,E, z | z A,F, z z B,G,F, | E,F,G,E, A,>G, F,E,/D,/ | C,A,,D,F,, B,,E,, A,,2 | %53
w: ||||
w: ||* * 6 7 * * * * *|6 * * * 7 7 4|
w: ||||
 D,,D,C,A,, D,DCA, | B,E, A,2 D,2 z2 | z2 D,2 C,3 F, | B,,3 E, A,,A,,A,A, | z F,B,B, G,>F, E,2 | %58
w: |||||
w: * * 6 * * * 6 *|7 7 4 *|* 6 *|7 # * * * *|* * * * * 6|
w: |||||
 F,>E, D,C, B,,E,, F,,2 | B,, B,/C/ DC/B,/ C3 B,/^A,/ | B,2 B,,2 E,,3 F,, | B,,4 F,,3 B,, | %62
w: ||||
w: # * 6 8yp * 6 4||* * 6 4|* 5 *|
w: ||||
 E,,3 A,, D,,D,, D,D, | z B,,E,E, D,>C, B,,2 | C,2 D,2 B,,2 C,2 | F,,F,/^G,/ A,G,/F,/ G,3 C | %66
w: ||||
w: 7 6e * * * *|* * * * 6 60t|# * 7t 5r|! * * * * * 7 #|
w: ||||
 F,2 (F,2 F,2) ^E,2 | F,3 E, D,2 E,2 | A,, F,2 E, D,2 E,2 | A,,A,/B,/ CB,/A,/ B,3 E, | %70
w: ||||
w: ||* 6r * * *||
w: |* 8y 7 4|* 5e 8y 7 4|* * * * * * 7 6E|
 A,3 A,, B,,3 E,, | A,,2 A,,2 B,,2 C,2 | D,2 D,2 G,,3 A,, | D,,2 z D, G,,G,A,A,, | %74
w: ||||
w: |||* * * * 4 *|
w: * * 7 6E|* * 6 *|* * 6t *|* * 7 6 5 3|
 B,, B,2 A, G,2 A,2 |"^violadagamb:solo" D,E,F,D, G,E,A,A,, | D,E,F,D, G,E,A,A,, | %77
w: |||
w: * * * 7 *|||
w: * 5e 8y * 4|||
 D,E,F,D, G,E,A,A,, | D,E,F,D, G,E,A,A,, | D,E,F,D, G,E,A,A,, | D,A,,B,,F,, G,,E,, A,,2 | %81
w: ||||
w: ||||
w: ||||
 D,E,F,D, G,E,A,A,, | D,A,,B,,F,, G,,E,, A,,2 | !fermata!D,,8 || G,,8- | G,,8- | G,,8 | %87
w: ||||||
w: ||||||
w: ||||||
[M:6/8]"^(a 2 Vivace)" G,3 F,3 | E,3 D,3 | G,,3 F,,3 | E,,3 D,,3 | G,3 F,3 | E,3 D,3 | %93
w: ||||||
w: ||||||
w: * 6|7 *|* 6|7 *|* 6|7 *|
 B,,3 =C,2 B,, | =C, D,2 G,,3 | D,3 G,,2 F,, | G,, A,,2 D,,3 | A,,3 D,3 | B,,3 F,3 | D,3 C,3 | %100
w: |||||||
w: |||||||
w: 6 * 6|6t 4 *|* * 6|6t 4 *|||* 6|
 B,,3 A,,3 | D,3 C,3 | B,,3 A,,3 | D,3 C,3 | B,,3 A,,3 | D,3 C,3 | B,,3 A,,3 | A,,>B,,C, D,2 C, | %108
w: ||||||||
w: ||||||||
w: 7 *|* 6|7 *|* 6|7 *|7 7|7 *|* * * * 6|
 D, E,2 A,,>B,,C, | D,2 C, D, E,2 | A,,>B,,C, D,3 | ^A,,3 B,,3 | G,,3 D,3 | G,,3 F,,3 | E,,3 D,,3 | %115
w: |||||||
w: |||||||
w: 6t 4 * * *|* 6 6t 4||6 *||* 6|7 *|
 G,,3 F,,3 | E,,3 D,,3 | G,,3 F,,3 | E,,3 D,,3 | G,,3 F,,3 | E,,3 D,,3 | G,,3 F,,3 | E,,3 D,,3 | %123
w: ||||||||
w: ||||||||
w: * 6|7 *|5 7|7 *|7 7|7 *|* 6|7 *|
 G,,3 F,,3 | E,,3 D,,3 | G,,3 F,,3 | E,, A,,2 D,,3 | z D,C, B,,G,F, | E,A,G, F,2 G, | %129
w: ||||||
w: ||||||
w: * 6|7 *|* 6|7 4 *|||
"^(viola da gamba)" A, A,,2 D, !fermata!D,,2 ||[M:4/4] B,,8- | B,,8 | B,,4 C,4 | D,4 B,,4 | G,,8 | %135
w: ||||||
w: ||||||
w: |||* 6||7|
 F,,2 F2 FE/D/ C>C, | F,2 F,,2 z4 | z2 z F, G,F,/E,/ F,F,, | B,,8- | B,,2 B,,C, D,2 z2 | %140
w: |||||
w: |||||
w: # * * * * * *|! *|# 6e 6 * * *|||
 z2 z[K:treble] D F>F A>A | FD[K:bass]D,F, G,D,F,C, | E,2 D,F, C,D, E,2 | F,4 E,2 F,2 | %144
w: ||||
w: ||||
w: * 6 * * *||5 * * * * 6|# 6 6r|
 G,4 F,3 F, | G,F,E,D, G,2 F,2 | z F,C,E, B,,2 F,2 | D,2 C,2 B,,C, D,2 | G,,B,F,A, E,2 B,B, | %149
w: |||||
w: |||||
w: * 6 *|* * * * 7 #||6 6 6 * *||
 F,A,E,G, D,2 A,G, | F,E, D,2 E,4- | E,2 ^D,2 E,2 E,2 | A,,6 z2 | z2 A,2 C>C E>E | %154
w: |||||
w: |||||
w: |* * 6 #|# 6t 4 #||* 6 * # *|
 CA,DD, F,>F, A,>A, | F,D, D,D,, D,,2 z2 | z2 z D G,B,F,A, | E,2 B,A, G,2 G,,G, | D3 D, E,2 F,2 | %159
w: |||||
w: |||||
w: * * * * 6 * * *||||* 6 * 9u|
 G,2 A,2 B,F,G,D, | FC/D/ EB,/C/ DD, A,2 | z E,B,A, G,G,,B,,=C, | D,3 D,, E,,2 F,,2 | %163
w: ||||
w: ||||
w: 7t 4 * 6 * *|* 6 * * 6 * * * *||* 6 * 9u|
 G,,2 A,,2 D,3 D, | E,3 D, C,2 D,2 | F,,2 ^G,,2 A,,4 | !fermata!D,,16 D,,16 |] %167
w: ||||
w: ||||
w: 7t 5r * 6|9 * 6 *|6 7t 5r||

